Numix/16/status/indicator-keyboard-Da.svg

<?xml version="1.0" encoding="UTF-8" standalone="no"?>
<svg
   xmlns:dc="http://purl.org/dc/elements/1.1/"
   xmlns:cc="http://creativecommons.org/ns#"
   xmlns:rdf="http://www.w3.org/1999/02/22-rdf-syntax-ns#"
   xmlns:svg="http://www.w3.org/2000/svg"
   xmlns="http://www.w3.org/2000/svg"
   xmlns:sodipodi="http://sodipodi.sourceforge.net/DTD/sodipodi-0.dtd"
   xmlns:inkscape="http://www.inkscape.org/namespaces/inkscape"
   viewBox="0 0 16 16"
   id="svg2"
   version="1.1"
   inkscape:version="0.91 r13725"
   sodipodi:docname="indicator-keyboard-Da.svg">
  <metadata
     id="metadata13">
    <rdf:RDF>
      <cc:Work
         rdf:about="">
        <dc:format>image/svg+xml</dc:format>
        <dc:type
           rdf:resource="http://purl.org/dc/dcmitype/StillImage" />
      </cc:Work>
    </rdf:RDF>
  </metadata>
  <defs
     id="defs11" />
  <sodipodi:namedview
     pagecolor="#ffffff"
     bordercolor="#666666"
     borderopacity="1"
     objecttolerance="10"
     gridtolerance="10"
     guidetolerance="10"
     inkscape:pageopacity="0"
     inkscape:pageshadow="2"
     inkscape:window-width="640"
     inkscape:window-height="480"
     id="namedview9"
     showgrid="false"
     inkscape:zoom="14.75"
     inkscape:cx="8"
     inkscape:cy="8"
     inkscape:window-x="65"
     inkscape:window-y="24"
     inkscape:window-maximized="0"
     inkscape:current-layer="svg2" />
  <path
     style="fill:#ececec;fill-opacity:1"
     d="M 1.5996094 0 C 0.71320937 2.9605947e-16 0 0.71320937 0 1.5996094 L 0 14.400391 C 2.9605947e-16 15.286791 0.71320937 16 1.5996094 16 L 14.400391 16 C 15.286791 16 16 15.286791 16 14.400391 L 16 1.5996094 C 16 0.71320937 15.286791 0 14.400391 0 L 1.5996094 0 z M 4.8398438 4.8046875 C 5.3438437 4.8046875 5.8065625 4.8719062 6.2265625 5.0039062 C 6.6465625 5.1359063 7.0066406 5.3336562 7.3066406 5.5976562 C 7.6126406 5.8616562 7.8495781 6.1918906 8.0175781 6.5878906 C 8.1855781 6.9838906 8.2695312 7.4446562 8.2695312 7.9726562 C 8.2695312 8.5066562 8.1855781 8.9711875 8.0175781 9.3671875 C 7.8495781 9.7631875 7.6126406 10.093422 7.3066406 10.357422 C 7.0066406 10.621422 6.6465625 10.819172 6.2265625 10.951172 C 5.8065625 11.083172 5.3438437 11.150391 4.8398438 11.150391 C 4.5878437 11.150391 4.3248281 11.135469 4.0488281 11.105469 C 3.7728281 11.081469 3.5283594 11.042281 3.3183594 10.988281 L 3.3183594 4.9765625 C 3.5283594 4.9165625 3.7728281 4.8736094 4.0488281 4.8496094 C 4.3248281 4.8196094 4.5878437 4.8046875 4.8398438 4.8046875 z M 4.9121094 5.3359375 C 4.5881094 5.3359375 4.3511719 5.3452812 4.2011719 5.3632812 C 4.0571719 5.3812812 3.9676406 5.3924375 3.9316406 5.3984375 L 3.9316406 10.556641 C 3.9676406 10.562641 4.0571719 10.573797 4.2011719 10.591797 C 4.3511719 10.609797 4.5881094 10.619141 4.9121094 10.619141 C 5.3621094 10.619141 5.7557969 10.559453 6.0917969 10.439453 C 6.4277969 10.313453 6.7095 10.136203 6.9375 9.9082031 C 7.1655 9.6802031 7.3371719 9.4040781 7.4511719 9.0800781 C 7.5651719 8.7500781 7.6210937 8.3806562 7.6210938 7.9726562 C 7.6210938 7.5646563 7.5651719 7.199 7.4511719 6.875 C 7.3371719 6.551 7.1655 6.274875 6.9375 6.046875 C 6.7095 5.818875 6.4277969 5.6453906 6.0917969 5.5253906 C 5.7557969 5.3993906 5.3621094 5.3359375 4.9121094 5.3359375 z M 11.005859 6.3359375 C 11.311859 6.3359375 11.57125 6.3807031 11.78125 6.4707031 C 11.99725 6.5547031 12.170734 6.6740781 12.302734 6.8300781 C 12.434734 6.9800781 12.529844 7.1591406 12.589844 7.3691406 C 12.649844 7.5791406 12.681641 7.8086875 12.681641 8.0546875 L 12.681641 10.988281 C 12.621641 11.006281 12.533922 11.026781 12.419922 11.050781 C 12.305922 11.068781 12.173438 11.089281 12.023438 11.113281 C 11.873437 11.137281 11.705531 11.155969 11.519531 11.167969 C 11.339531 11.185969 11.152937 11.195313 10.960938 11.195312 C 10.714938 11.195312 10.487344 11.167281 10.277344 11.113281 C 10.073344 11.059281 9.8942812 10.975328 9.7382812 10.861328 C 9.5882812 10.741328 9.4669531 10.592109 9.3769531 10.412109 C 9.2929531 10.226109 9.2519531 10.000328 9.2519531 9.7363281 C 9.2519531 9.4843281 9.3004844 9.2698438 9.3964844 9.0898438 C 9.4924844 8.9098438 9.6267812 8.7624375 9.8007812 8.6484375 C 9.9747814 8.5284375 10.181875 8.4407187 10.421875 8.3867188 C 10.661875 8.3327188 10.923078 8.3066406 11.205078 8.3066406 C 11.289078 8.3066406 11.374844 8.3122187 11.464844 8.3242188 C 11.560844 8.3302187 11.652328 8.341375 11.736328 8.359375 C 11.826328 8.371375 11.900937 8.3862969 11.960938 8.4042969 C 12.026937 8.4162969 12.071703 8.4294063 12.095703 8.4414062 L 12.095703 8.1523438 C 12.095703 7.9903437 12.084547 7.8355469 12.060547 7.6855469 C 12.036547 7.5295469 11.982438 7.3914844 11.898438 7.2714844 C 11.820437 7.1454844 11.706641 7.0466094 11.556641 6.9746094 C 11.412641 6.8966094 11.220469 6.8574219 10.980469 6.8574219 C 10.638469 6.8574219 10.382844 6.8816875 10.214844 6.9296875 C 10.046844 6.9776875 9.9237031 7.016875 9.8457031 7.046875 L 9.765625 6.5332031 C 9.867625 6.4852031 10.022422 6.4404375 10.232422 6.3984375 C 10.448422 6.3564375 10.705859 6.3359375 11.005859 6.3359375 z M 11.1875 8.8105469 C 11.0435 8.8105469 10.892328 8.8217031 10.736328 8.8457031 C 10.580328 8.8637031 10.436687 8.9084688 10.304688 8.9804688 C 10.172687 9.0464688 10.064469 9.1397656 9.9804688 9.2597656 C 9.8964687 9.3797656 9.8554688 9.5383281 9.8554688 9.7363281 C 9.8554688 9.9103281 9.8815469 10.057734 9.9355469 10.177734 C 9.9955469 10.297734 10.077687 10.394797 10.179688 10.466797 C 10.287688 10.538797 10.412641 10.592906 10.556641 10.628906 C 10.706641 10.658906 10.874547 10.673828 11.060547 10.673828 C 11.288547 10.673828 11.486297 10.666297 11.654297 10.654297 C 11.828297 10.636297 11.975703 10.615797 12.095703 10.591797 L 12.095703 8.953125 C 12.029703 8.923125 11.92525 8.8932813 11.78125 8.8632812 C 11.63725 8.8272813 11.4395 8.8105469 11.1875 8.8105469 z "
     id="path4" />
</svg>

<svg xmlns="http://www.w3.org/2000/svg" viewBox="0 0 16 16">
 <path d="m 1.6 0 c -0.886 0 -1.6 0.713 -1.6 1.6 l 0 12.801 c 0 0.886 0.713 1.6 1.6 1.6 l 12.801 0 c 0.886 0 1.6 -0.713 1.6 -1.6 l 0 -12.801 c 0 -0.886 -0.713 -1.6 -1.6 -1.6 l -12.801 0 z m 3.24 4.805 c 0.504 0 0.967 0.067 1.387 0.199 c 0.42 0.132 0.78 0.33 1.08 0.594 c 0.306 0.264 0.543 0.594 0.711 0.99 c 0.168 0.396 0.252 0.857 0.252 1.385 c 0 0.534 -0.084 0.999 -0.252 1.395 c -0.168 0.396 -0.405 0.726 -0.711 0.99 c -0.3 0.264 -0.66 0.462 -1.08 0.594 c -0.42 0.132 -0.883 0.199 -1.387 0.199 c -0.252 0 -0.515 -0.015 -0.791 -0.045 c -0.276 -0.024 -0.52 -0.063 -0.73 -0.117 l 0 -6.01 c 0.21 -0.06 0.454 -0.103 0.73 -0.127 c 0.276 -0.03 0.539 -0.045 0.791 -0.045 z m 0.072 0.531 c -0.324 0 -0.561 0.009 -0.711 0.027 c -0.144 0.018 -0.234 0.029 -0.27 0.035 l 0 5.158 c 0.036 0.006 0.126 0.017 0.27 0.035 c 0.15 0.018 0.387 0.027 0.711 0.027 c 0.45 0 0.844 -0.06 1.18 -0.18 c 0.336 -0.126 0.618 -0.303 0.846 -0.531 c 0.228 -0.228 0.4 -0.504 0.514 -0.828 c 0.114 -0.33 0.17 -0.699 0.17 -1.107 c 0 -0.408 -0.056 -0.774 -0.17 -1.098 c -0.114 -0.324 -0.286 -0.6 -0.514 -0.828 c -0.228 -0.228 -0.51 -0.401 -0.846 -0.521 c -0.336 -0.126 -0.73 -0.189 -1.18 -0.189 z m 6.094 1 c 0.306 0 0.565 0.045 0.775 0.135 c 0.216 0.084 0.389 0.203 0.521 0.359 c 0.132 0.15 0.227 0.329 0.287 0.539 c 0.06 0.21 0.092 0.44 0.092 0.686 l 0 2.934 c -0.06 0.018 -0.148 0.038 -0.262 0.063 c -0.114 0.018 -0.246 0.038 -0.396 0.063 c -0.15 0.024 -0.318 0.043 -0.504 0.055 c -0.18 0.018 -0.367 0.027 -0.559 0.027 c -0.246 0 -0.474 -0.028 -0.684 -0.082 c -0.204 -0.054 -0.383 -0.138 -0.539 -0.252 c -0.15 -0.12 -0.271 -0.269 -0.361 -0.449 c -0.084 -0.186 -0.125 -0.412 -0.125 -0.676 c 0 -0.252 0.049 -0.466 0.145 -0.646 c 0.096 -0.18 0.23 -0.327 0.404 -0.441 c 0.174 -0.12 0.381 -0.208 0.621 -0.262 c 0.24 -0.054 0.501 -0.08 0.783 -0.08 c 0.084 0 0.17 0.006 0.26 0.018 c 0.096 0.006 0.187 0.017 0.271 0.035 c 0.09 0.012 0.165 0.027 0.225 0.045 c 0.066 0.012 0.111 0.025 0.135 0.037 l 0 -0.289 c 0 -0.162 -0.011 -0.317 -0.035 -0.467 c -0.024 -0.156 -0.078 -0.294 -0.162 -0.414 c -0.078 -0.126 -0.192 -0.225 -0.342 -0.297 c -0.144 -0.078 -0.336 -0.117 -0.576 -0.117 c -0.342 0 -0.598 0.024 -0.766 0.072 c -0.168 0.048 -0.291 0.087 -0.369 0.117 l -0.08 -0.514 c 0.102 -0.048 0.257 -0.093 0.467 -0.135 c 0.216 -0.042 0.473 -0.063 0.773 -0.063 z m 0.182 2.475 c -0.144 0 -0.295 0.011 -0.451 0.035 c -0.156 0.018 -0.3 0.063 -0.432 0.135 c -0.132 0.066 -0.24 0.159 -0.324 0.279 c -0.084 0.12 -0.125 0.279 -0.125 0.477 c 0 0.174 0.026 0.321 0.08 0.441 c 0.06 0.12 0.142 0.217 0.244 0.289 c 0.108 0.072 0.233 0.126 0.377 0.162 c 0.15 0.03 0.318 0.045 0.504 0.045 c 0.228 0 0.426 -0.008 0.594 -0.02 c 0.174 -0.018 0.321 -0.038 0.441 -0.063 l 0 -1.639 c -0.066 -0.03 -0.17 -0.06 -0.314 -0.09 c -0.144 -0.036 -0.342 -0.053 -0.594 -0.053 z" style="fill:#ececec;fill-opacity:1"/>
</svg>
